img/svg/logo/padatak-logo.svg

<svg width="31" height="32" viewBox="0 0 31 32" fill="none" xmlns="http://www.w3.org/2000/svg">
<path d="M20.9842 23.898C16.2758 24.5467 11.5219 21.1873 11.0669 16.3682C10.6575 12.0124 10.9077 2.72176 10.9077 2.58275C10.9077 1.70234 11.6128 0.960938 12.4999 0.960938C13.387 0.960938 14.0922 1.67917 14.0922 2.58275C14.0922 2.7681 14.0467 12.5917 14.1149 14.5378C14.2514 18.129 16.7535 20.7239 19.9152 20.6544C22.9177 20.5849 25.488 17.9205 25.4652 14.839C25.4652 11.5491 22.9404 9.13951 19.392 9.11634C19.3693 9.11634 19.0281 9.16268 18.8916 9.16268C17.9818 9.16268 17.2311 8.39811 17.2311 7.47136C17.2311 6.54461 17.959 5.80321 18.8916 5.75687C19.0053 5.75687 19.4375 5.71054 19.574 5.71054C24.2597 5.52519 28.263 9.18585 28.6724 13.9818C29.0591 19.0094 25.7609 23.2493 20.9842 23.898Z" fill="#C47A2C"/>
<path d="M6.08417 9.4904C7.03891 9.4904 7.81288 8.70205 7.81288 7.72958C7.81288 6.7571 7.03891 5.96875 6.08417 5.96875C5.12944 5.96875 4.35547 6.7571 4.35547 7.72958C4.35547 8.70205 5.12944 9.4904 6.08417 9.4904Z" fill="#C47A2C"/>
<path d="M14.0038 9.02547C9.29533 8.37674 4.5414 11.7362 4.08647 16.5553C3.67704 20.911 3.92725 30.2017 3.92725 30.3407C3.92725 31.2443 4.63238 31.9625 5.51948 31.9625C6.40658 31.9625 7.11171 31.2443 7.11171 30.3407C7.11171 30.1554 7.06621 20.3318 7.13445 18.3856C7.27093 14.7945 9.773 12.1996 12.9347 12.2691C15.9372 12.3386 18.5075 15.003 18.4848 18.0845C18.4848 21.3744 15.9599 23.784 12.4115 23.8071C12.3888 23.8071 12.0476 23.7608 11.9111 23.7608C11.0013 23.7608 10.2507 24.5254 10.2507 25.4521C10.2507 26.3789 10.9785 27.1203 11.9111 27.1666C12.0249 27.1666 12.457 27.1898 12.5935 27.2129C17.2792 27.3983 21.2825 23.7376 21.692 18.9417C22.0786 13.9372 18.7805 9.67419 14.0038 9.02547Z" fill="#034A66"/>
<path d="M14.0945 14.5633C14.231 18.1545 16.7331 20.7494 19.8948 20.6799C22.8972 20.6104 25.4676 17.946 25.4448 14.8645C25.4448 13.4281 28.4018 11.2965 28.6293 14.0073C29.0387 19.0117 25.7405 23.2516 20.9638 23.9235C16.2554 24.5722 11.5014 21.2128 11.0465 16.3937C10.8646 14.2158 14.0718 13.5903 14.0945 14.5633Z" fill="#C47A2C"/>
</svg>

<svg width="31" height="32" fill="none" xmlns="http://www.w3.org/2000/svg"><path d="M20.984 23.898c-4.708.649-9.462-2.71-9.917-7.53-.41-4.356-.16-13.646-.16-13.785 0-.88.706-1.622 1.593-1.622s1.592.718 1.592 1.622c0 .185-.045 10.009.023 11.955.136 3.591 2.638 6.186 5.8 6.116 3.003-.07 5.573-2.733 5.55-5.815 0-3.29-2.525-5.7-6.073-5.723-.023 0-.364.047-.5.047-.91 0-1.66-.765-1.66-1.692 0-.926.727-1.668 1.66-1.714.113 0 .546-.046.682-.046 4.686-.186 8.689 3.475 9.098 8.27.387 5.028-2.911 9.268-7.688 9.917zM6.084 9.49c.955 0 1.729-.788 1.729-1.76 0-.973-.774-1.761-1.729-1.761-.955 0-1.729.788-1.729 1.76 0 .973.774 1.761 1.73 1.761z" fill="#C47A2C"/><path d="M14.004 9.025c-4.709-.648-9.463 2.711-9.918 7.53-.409 4.356-.159 13.647-.159 13.786 0 .903.705 1.621 1.592 1.621.888 0 1.593-.718 1.593-1.621 0-.186-.046-10.01.022-11.955.137-3.591 2.639-6.186 5.8-6.117 3.003.07 5.574 2.734 5.55 5.815 0 3.29-2.524 5.7-6.073 5.723-.022 0-.363-.046-.5-.046-.91 0-1.66.764-1.66 1.691s.728 1.668 1.66 1.715c.114 0 .546.023.683.046 4.685.185 8.688-3.475 9.098-8.271.387-5.005-2.912-9.268-7.688-9.917z" fill="#034A66"/><path d="M14.095 14.563c.136 3.591 2.638 6.186 5.8 6.117 3.002-.07 5.573-2.734 5.55-5.816 0-1.436 2.957-3.568 3.184-.857.41 5.005-2.889 9.245-7.665 9.917-4.709.648-9.463-2.711-9.917-7.53-.182-2.178 3.025-2.804 3.047-1.83z" fill="#C47A2C"/></svg>
